icons/inbox-person-outline.svg

<svg xmlns="http://www.w3.org/2000/svg" width="24" height="24" viewBox="0 0 24 24">
  <path d="M19,2 C20.5976809,2 21.9036609,3.24891996 21.9949073,4.82372721 L22,5 L22,19 C22,20.5976809 20.75108,21.9036609 19.1762728,21.9949073 L19,22 L5,22 C3.40231912,22 2.09633912,20.75108 2.00509269,19.1762728 L2,19 L2,5 C2,3.40231912 3.24891996,2.09633912 4.82372721,2.00509269 L5,2 L19,2 Z M19,4 L5,4 C4.48716416,4 4.06449284,4.38604019 4.00672773,4.88337887 L4,5 L4,14 L6,14 C7.1045695,14 8,14.8954305 8,16 C8,17.1045695 8.8954305,18 10,18 L14,18 C15.1045695,18 16,17.1045695 16,16 C16,14.8954305 16.8954305,14 18,14 L20,14 L20,5 C20,4.48716416 19.6139598,4.06449284 19.1166211,4.00672773 L19,4 Z M13,11 C14.5,11 15.5,11.9644661 15.5,13 C15.5,13.4722222 15.5,13.9444444 14.6575789,13.9954561 L14.5,14 L9.5,14 C8.5,14 8.5,13.5 8.5,13 C8.5,12.0076133 9.41840278,11.0804956 10.8151403,11.0049586 L11,11 L13,11 Z M12,6 C13.1045695,6 14,6.8954305 14,8 C14,9.1045695 13.1045695,10 12,10 C10.8954305,10 10,9.1045695 10,8 C10,6.8954305 10.8954305,6 12,6 Z"/>
</svg>

<svg xmlns="http://www.w3.org/2000/svg" viewBox="0 0 24 24">
  <path d="M19 2a3 3 0 0 1 3 2.82V19a3 3 0 0 1-2.82 3H5a3 3 0 0 1-3-2.82V5a3 3 0 0 1 2.82-3H19zm0 2H5a1 1 0 0 0-1 .88V14h2a2 2 0 0 1 2 2c0 1.1.9 2 2 2h4a2 2 0 0 0 2-2c0-1.1.9-2 2-2h2V5a1 1 0 0 0-.88-1H19zm-6 7c1.5 0 2.5.96 2.5 2 0 .47 0 .94-.84 1H9.5c-1 0-1-.5-1-1 0-1 .92-1.92 2.32-2H13zm-1-5a2 2 0 1 1 0 4 2 2 0 0 1 0-4z"/>
</svg>
